source/work/images/artifact_cardsort.svg

<svg xmlns="http://www.w3.org/2000/svg" width="64" height="64" viewBox="0 0 64 64"><style type="text/css">.frame{fill:#FFFFFF;} .content{opacity:0.5;fill:#FFFFFF;}</style><path class="content" d="M19 11h-12c-1.105 0-2 .895-2 2v16c0 1.105.895 2 2 2h12c1.105 0 2-.895 2-2v-16c0-1.105-.895-2-2-2zm1 2v16l-.03.147-6.337-8.147 6.337-8.147.03.147zm-1-1c.112 0 .216.03.317.064l-6.317 8.122-6.317-8.121c.101-.035.205-.065.317-.065h12zm-12.97 17.147l-.03-.147v-16l.03-.147 6.337 8.147-6.337 8.147zm.97.853c-.112 0-.216-.03-.317-.064l6.317-8.122 6.317 8.121c-.101.035-.205.065-.317.065h-12zm14 5.5c0 .276-.224.5-.5.5h-15c-.276 0-.5-.224-.5-.5s.224-.5.5-.5h15c.276 0 .5.224.5.5zm0 3c0 .276-.224.5-.5.5h-15c-.276 0-.5-.224-.5-.5s.224-.5.5-.5h15c.276 0 .5.224.5.5zm-4 3c0 .276-.224.5-.5.5h-11c-.276 0-.5-.224-.5-.5s.224-.5.5-.5h11c.276 0 .5.224.5.5zm34-30.5h-12c-1.105 0-2 .895-2 2v16c0 1.105.895 2 2 2h12c1.105 0 2-.895 2-2v-16c0-1.105-.895-2-2-2zm1 2v16l-.03.147-6.337-8.147 6.337-8.147.03.147zm-1-1c.112 0 .216.03.317.064l-6.317 8.122-6.317-8.121c.101-.035.205-.065.317-.065h12zm-12.97 17.147l-.03-.147v-16l.03-.147 6.337 8.147-6.337 8.147zm.97.853c-.112 0-.216-.03-.317-.064l6.317-8.122 6.317 8.121c-.101.035-.205.065-.317.065h-12zm14 5.5c0 .276-.224.5-.5.5h-15c-.276 0-.5-.224-.5-.5s.224-.5.5-.5h15c.276 0 .5.224.5.5zm0 3c0 .276-.224.5-.5.5h-15c-.276 0-.5-.224-.5-.5s.224-.5.5-.5h15c.276 0 .5.224.5.5zm-4 3c0 .276-.224.5-.5.5h-11c-.276 0-.5-.224-.5-.5s.224-.5.5-.5h11c.276 0 .5.224.5.5z"/><path class="frame" d="M22 8c1.103 0 2 .897 2 2v38c0 1.103-.897 2-2 2h-18c-1.103 0-2-.897-2-2v-38c0-1.103.897-2 2-2h18m0-1h-18c-1.657 0-3 1.343-3 3v38c0 1.657 1.343 3 3 3h18c1.657 0 3-1.343 3-3v-38c0-1.657-1.343-3-3-3zm3 3h-.5v1h.5c1.103 0 2 .897 2 2v38c0 1.103-.897 2-2 2h-18c-1.103 0-2-.897-2-2v-.5h-1v.5c0 1.657 1.343 3 3 3h18c1.657 0 3-1.343 3-3v-38c0-1.657-1.343-3-3-3zm3 3h-.5v1h.5c1.103 0 2 .897 2 2v38c0 1.103-.897 2-2 2h-18c-1.103 0-2-.897-2-2v-.5h-1v.5c0 1.657 1.343 3 3 3h18c1.657 0 3-1.343 3-3v-38c0-1.657-1.343-3-3-3zm26-5c1.103 0 2 .897 2 2v38c0 1.103-.897 2-2 2h-18c-1.103 0-2-.897-2-2v-38c0-1.103.897-2 2-2h18m0-1h-18c-1.657 0-3 1.343-3 3v38c0 1.657 1.343 3 3 3h18c1.657 0 3-1.343 3-3v-38c0-1.657-1.343-3-3-3zm3 3h-.5v1h.5c1.103 0 2 .897 2 2v38c0 1.103-.897 2-2 2h-18c-1.103 0-2-.897-2-2v-.5h-1v.5c0 1.657 1.343 3 3 3h18c1.657 0 3-1.343 3-3v-38c0-1.657-1.343-3-3-3zm3 3h-.5v1h.5c1.103 0 2 .897 2 2v38c0 1.103-.897 2-2 2h-18c-1.103 0-2-.897-2-2v-.5h-1v.5c0 1.657 1.343 3 3 3h18c1.657 0 3-1.343 3-3v-38c0-1.657-1.343-3-3-3z"/></svg>

<?xml version="1.0" encoding="utf-8"?>
<!-- Generator: Adobe Illustrator 19.2.1, SVG Export Plug-In . SVG Version: 6.00 Build 0)  -->
<svg version="1.1" id="icons" xmlns="http://www.w3.org/2000/svg" xmlns:xlink="http://www.w3.org/1999/xlink" x="0px" y="0px"
	 width="64px" height="64px" viewBox="0 0 64 64" style="enable-background:new 0 0 64 64;" xml:space="preserve">
<style type="text/css">
	.frame{fill:#FFFFFF;}
	.content{opacity:0.5;fill:#FFFFFF;}
</style>
<path class="content" d="M19,11H7c-1.105,0-2,0.895-2,2v16c0,1.105,0.895,2,2,2h12c1.105,0,2-0.895,2-2V13
	C21,11.895,20.105,11,19,11z M20,13v16c0,0.052-0.022,0.097-0.03,0.147L13.633,21l6.337-8.147C19.978,12.903,20,12.948,20,13z
	 M19,12c0.112,0,0.216,0.03,0.317,0.064L13,20.186l-6.317-8.121C6.784,12.03,6.888,12,7,12H19z M6.03,29.147
	C6.022,29.097,6,29.052,6,29V13c0-0.052,0.022-0.097,0.03-0.147L12.367,21L6.03,29.147z M7,30c-0.112,0-0.216-0.03-0.317-0.064
	L13,21.814l6.317,8.121C19.216,29.97,19.112,30,19,30H7z M21,35.5c0,0.276-0.224,0.5-0.5,0.5h-15C5.224,36,5,35.776,5,35.5
	S5.224,35,5.5,35h15C20.776,35,21,35.224,21,35.5z M21,38.5c0,0.276-0.224,0.5-0.5,0.5h-15C5.224,39,5,38.776,5,38.5
	S5.224,38,5.5,38h15C20.776,38,21,38.224,21,38.5z M17,41.5c0,0.276-0.224,0.5-0.5,0.5h-11C5.224,42,5,41.776,5,41.5
	S5.224,41,5.5,41h11C16.776,41,17,41.224,17,41.5z M51,11H39c-1.105,0-2,0.895-2,2v16c0,1.105,0.895,2,2,2h12c1.105,0,2-0.895,2-2
	V13C53,11.895,52.105,11,51,11z M52,13v16c0,0.052-0.022,0.097-0.03,0.147L45.633,21l6.337-8.147C51.978,12.903,52,12.948,52,13z
	 M51,12c0.112,0,0.216,0.03,0.317,0.064L45,20.186l-6.317-8.121C38.784,12.03,38.888,12,39,12H51z M38.03,29.147
	C38.022,29.097,38,29.052,38,29V13c0-0.052,0.022-0.097,0.03-0.147L44.367,21L38.03,29.147z M39,30c-0.112,0-0.216-0.03-0.317-0.064
	L45,21.814l6.317,8.121C51.216,29.97,51.112,30,51,30H39z M53,35.5c0,0.276-0.224,0.5-0.5,0.5h-15c-0.276,0-0.5-0.224-0.5-0.5
	s0.224-0.5,0.5-0.5h15C52.776,35,53,35.224,53,35.5z M53,38.5c0,0.276-0.224,0.5-0.5,0.5h-15c-0.276,0-0.5-0.224-0.5-0.5
	s0.224-0.5,0.5-0.5h15C52.776,38,53,38.224,53,38.5z M49,41.5c0,0.276-0.224,0.5-0.5,0.5h-11c-0.276,0-0.5-0.224-0.5-0.5
	s0.224-0.5,0.5-0.5h11C48.776,41,49,41.224,49,41.5z"/>
<path class="frame" d="M22,8c1.103,0,2,0.897,2,2v38c0,1.103-0.897,2-2,2H4c-1.103,0-2-0.897-2-2V10c0-1.103,0.897-2,2-2H22 M22,7H4
	c-1.657,0-3,1.343-3,3v38c0,1.657,1.343,3,3,3h18c1.657,0,3-1.343,3-3V10C25,8.343,23.657,7,22,7L22,7z M25,10h-0.5v1H25
	c1.103,0,2,0.897,2,2v38c0,1.103-0.897,2-2,2H7c-1.103,0-2-0.897-2-2v-0.5H4V51c0,1.657,1.343,3,3,3h18c1.657,0,3-1.343,3-3V13
	C28,11.343,26.657,10,25,10z M28,13h-0.5v1H28c1.103,0,2,0.897,2,2v38c0,1.103-0.897,2-2,2H10c-1.103,0-2-0.897-2-2v-0.5H7V54
	c0,1.657,1.343,3,3,3h18c1.657,0,3-1.343,3-3V16C31,14.343,29.657,13,28,13z M54,8c1.103,0,2,0.897,2,2v38c0,1.103-0.897,2-2,2H36
	c-1.103,0-2-0.897-2-2V10c0-1.103,0.897-2,2-2H54 M54,7H36c-1.657,0-3,1.343-3,3v38c0,1.657,1.343,3,3,3h18c1.657,0,3-1.343,3-3V10
	C57,8.343,55.657,7,54,7L54,7z M57,10h-0.5v1H57c1.103,0,2,0.897,2,2v38c0,1.103-0.897,2-2,2H39c-1.103,0-2-0.897-2-2v-0.5h-1V51
	c0,1.657,1.343,3,3,3h18c1.657,0,3-1.343,3-3V13C60,11.343,58.657,10,57,10z M60,13h-0.5v1H60c1.103,0,2,0.897,2,2v38
	c0,1.103-0.897,2-2,2H42c-1.103,0-2-0.897-2-2v-0.5h-1V54c0,1.657,1.343,3,3,3h18c1.657,0,3-1.343,3-3V16C63,14.343,61.657,13,60,13
	z"/>
</svg>
